icon/pk/dark-mode.svg

<svg viewBox="0 0 48 48" fill="none" xmlns="http://www.w3.org/2000/svg" height="1em" width="1em">
  <path d="M24.0033 4L29.2737 9.27038H38.7296V18.7263L44 23.9967L38.7296 29.2737V38.7296H29.2737L24.0033 44L18.7264 38.7296H9.27036V29.2737L4 23.9967L9.27036 18.7263V9.27038H18.7264L24.0033 4Z" fill="#2F88FF" stroke="black" stroke-width="4" stroke-miterlimit="10" stroke-linecap="round" stroke-linejoin="round"/>
  <path d="M27 17C27 25 22 26 17 26C17 30 23.5 34 29 30C34.5 26 31 17 27 17Z" fill="#43CCF8" stroke="white" stroke-width="4" stroke-miterlimit="10" stroke-linecap="round" stroke-linejoin="round"/>
</svg>

<svg width="48" height="48" fill="none" xmlns="http://www.w3.org/2000/svg"><path d="m24.003 4 5.27 5.27h9.457v9.456l5.27 5.27-5.27 5.278v9.456h-9.456L24.004 44l-5.278-5.27H9.27v-9.456L4 23.997l5.27-5.27V9.27h9.456L24.003 4Z" fill="#2F88FF" stroke="#000" stroke-width="4" stroke-miterlimit="10" stroke-linecap="round" stroke-linejoin="round"/><path d="M27 17c0 8-5 9-10 9 0 4 6.5 8 12 4s2-13-2-13Z" fill="#43CCF8" stroke="#fff" stroke-width="4" stroke-miterlimit="10" stroke-linecap="round" stroke-linejoin="round"/></svg>
